svg/logo/vue_fill.svg

<?xml version="1.0" encoding="UTF-8"?>
<svg width="24px" height="24px" viewBox="0 0 24 24" version="1.1" xmlns="http://www.w3.org/2000/svg" xmlns:xlink="http://www.w3.org/1999/xlink">
    <title>vue_fill</title>
    <g id="页面-1" stroke="none" stroke-width="1" fill="none" fill-rule="evenodd">
        <g id="Logo" transform="translate(-816.000000, -144.000000)" fill-rule="nonzero">
            <g id="vue_fill" transform="translate(816.000000, 144.000000)">
                 <path d="M24,0 L24,24 L0,24 L0,0 L24,0 Z M12.5934901,23.257841 L12.5819402,23.2595131 L12.5108777,23.2950439 L12.4918791,23.2987469 L12.4918791,23.2987469 L12.4767152,23.2950439 L12.4056548,23.2595131 C12.3958229,23.2563662 12.3870493,23.2590235 12.3821421,23.2649074 L12.3780323,23.275831 L12.360941,23.7031097 L12.3658947,23.7234994 L12.3769048,23.7357139 L12.4804777,23.8096931 L12.4953491,23.8136134 L12.4953491,23.8136134 L12.5071152,23.8096931 L12.6106902,23.7357139 L12.6232938,23.7196733 L12.6232938,23.7196733 L12.6266527,23.7031097 L12.609561,23.275831 C12.6075724,23.2657013 12.6010112,23.2592993 12.5934901,23.257841 L12.5934901,23.257841 Z M12.8583906,23.1452862 L12.8445485,23.1473072 L12.6598443,23.2396597 L12.6498822,23.2499052 L12.6498822,23.2499052 L12.6471943,23.2611114 L12.6650943,23.6906389 L12.6699349,23.7034178 L12.6699349,23.7034178 L12.678386,23.7104931 L12.8793402,23.8032389 C12.8914285,23.8068999 12.9022333,23.8029875 12.9078286,23.7952264 L12.9118235,23.7811639 L12.8776777,23.1665331 C12.8752882,23.1545897 12.8674102,23.1470016 12.8583906,23.1452862 L12.8583906,23.1452862 Z M12.1430473,23.1473072 C12.1332178,23.1423925 12.1221763,23.1452606 12.1156365,23.1525954 L12.1099173,23.1665331 L12.0757714,23.7811639 C12.0751323,23.7926639 12.0828099,23.8018602 12.0926481,23.8045676 L12.108256,23.8032389 L12.3092106,23.7104931 L12.3186497,23.7024347 L12.3186497,23.7024347 L12.3225043,23.6906389 L12.340401,23.2611114 L12.337245,23.2485176 L12.337245,23.2485176 L12.3277531,23.2396597 L12.1430473,23.1473072 Z" id="MingCute" fill-rule="nonzero"></path>
                <path d="M19.7071,3.93958 C20.1271,3.22553 21.0465,2.98718 21.7605,3.40721 C22.4325941,3.80253235 22.6832183,4.64015893 22.3602212,5.33264345 L22.2929,5.46064 L13.2929,20.7606 C13.0234,21.2188 12.5315,21.5001 12,21.5001 C11.5168182,21.5001 11.0663636,21.2676207 10.7859767,20.8810992 L10.7071,20.7606 L1.70709,5.46062 C1.28706,4.74657 1.52541,3.82722 2.23946,3.40719 C2.91150706,3.01186765 3.76542042,3.19985159 4.21373713,3.81852642 L4.2929,3.93956 L12,17.0416 L19.7071,3.93958 Z M14.8272,3.93527 C15.2472,3.22122 16.1666,2.98287 16.8806,3.40289 C17.5526941,3.79821235 17.8033183,4.63584779 17.4803212,5.32833335 L17.413,5.45633 L13.2929,12.4605 C13.0234,12.9187 12.5315,13.2 12,13.2 C11.5168182,13.2 11.0663636,12.9675207 10.7859767,12.5809992 L10.7071,12.4605 L6.589,5.45974 C6.16897,4.74569 6.40732,3.82634 7.12137,3.40631 C7.79341706,3.01098765 8.64733042,3.19886696 9.09563879,3.81764642 L9.1748,3.93868 L12,8.74151 L14.8272,3.93527 Z" id="形状" fill="#09244B"></path>
            </g>
        </g>
    </g>
</svg>

<svg xmlns="http://www.w3.org/2000/svg" width="24" height="24"><g fill="none" fill-rule="nonzero"><path d="M24 0v24H0V0h24ZM12.593 23.258l-.011.002-.071.035-.02.004-.014-.004-.071-.035c-.01-.004-.019-.001-.024.005l-.004.01-.017.428.005.02.01.013.104.074.015.004.012-.004.104-.074.012-.016.004-.017-.017-.427c-.002-.01-.009-.017-.017-.018Zm.265-.113-.013.002-.185.093-.01.01-.003.011.018.43.005.012.008.007.201.093c.012.004.023 0 .029-.008l.004-.014-.034-.614c-.003-.012-.01-.02-.02-.022Zm-.715.002a.023.023 0 0 0-.027.006l-.006.014-.034.614c0 .012.007.02.017.024l.015-.002.201-.093.01-.008.004-.011.017-.43-.003-.012-.01-.01-.184-.092Z"/><path fill="#09244B" d="M19.707 3.94a1.5 1.5 0 0 1 2.653 1.393l-.067.128-9 15.3a1.5 1.5 0 0 1-2.507.12l-.079-.12-9-15.3a1.5 1.5 0 0 1 2.507-1.642l.079.12L12 17.043 19.707 3.94Zm-4.88-.005a1.5 1.5 0 0 1 2.653 1.393l-.067.128-4.12 7.004a1.5 1.5 0 0 1-2.507.121l-.079-.12L6.59 5.46a1.5 1.5 0 0 1 2.507-1.642l.079.12L12 8.743l2.827-4.807Z"/></g></svg>
